P3
# S3H01 matched-angle proof: left=-0.85deg right=+0.85deg
32 9
255
38 32 27 14 11 9 26 30 33 47 57 63 50 57 61 28 23 20 31 23 17 34 32 30 66 79 88 55 67 77 51 63 73 65 75 83 59 62 64 42 36 30 33 33 34 53 41 35 39 32 27 15 12 10 24 28 30 47 57 63 50 57 61 29 24 20 31 23 17 34 32 30 66 79 88 55 67 76 51 63 73 66 76 84 62 65 67 43 37 31 33 33 34 49 39 34
48 38 32 25 19 15 40 46 50 62 75 82 55 64 68 24 18 14 77 55 40 38 36 35 58 68 75 45 54 60 68 82 93 117 134 147 93 100 104 47 40 33 33 32 31 63 48 39 46 38 32 26 20 16 38 43 46 62 75 82 56 64 68 24 18 14 77 54 40 38 36 35 58 68 75 45 54 60 68 82 93 116 134 147 95 103 108 48 41 33 33 32 31 57 44 36
73 52 37 51 36 26 53 58 60 67 78 83 62 68 70 30 22 16 74 52 38 29 26 24 68 78 84 62 72 79 82 97 108 97 112 123 69 73 76 51 43 35 37 35 33 78 58 46 68 49 35 53 38 27 51 55 57 68 79 84 62 69 70 30 22 17 74 52 38 29 26 24 68 78 84 62 72 79 81 97 107 97 111 123 70 74 78 52 44 36 37 35 33 68 52 42
150 100 63 86 60 39 51 54 54 49 55 57 55 60 61 41 31 25 65 48 37 49 36 27 33 33 33 42 48 51 51 56 60 68 74 78 54 55 55 55 46 38 45 43 42 92 70 53 146 98 62 92 63 41 51 52 52 49 55 58 55 60 61 41 31 25 66 48 37 49 36 27 33 33 33 42 48 51 51 56 60 68 73 78 55 55 56 55 47 38 45 43 42 79 62 49
150 102 61 114 80 49 47 49 49 36 41 43 49 49 49 29 23 20 18 15 14 19 14 11 19 15 13 31 32 32 53 53 52 68 71 73 48 46 45 57 48 40 49 47 45 97 77 60 139 94 57 122 85 52 47 48 48 36 41 43 49 49 50 29 23 20 18 15 14 19 14 11 19 15 13 31 32 32 53 53 52 68 71 73 48 47 46 58 49 40 47 45 44 85 68 55
66 48 35 48 34 24 38 36 35 22 23 22 48 43 39 22 16 13 13 11 11 14 12 11 16 12 9 23 20 19 55 57 58 59 63 66 33 32 30 50 41 34 45 43 43 88 69 53 64 47 35 49 35 24 38 36 34 22 23 22 48 43 38 22 17 13 13 11 11 14 12 11 16 12 9 23 20 19 54 56 58 60 64 67 33 31 30 51 42 34 44 42 42 77 62 50
26 23 20 22 20 19 20 17 15 15 13 11 51 41 33 53 37 26 14 12 12 15 13 13 16 13 11 23 23 23 56 61 64 44 49 52 24 23 21 55 45 38 30 26 24 41 31 23 27 23 20 22 20 20 20 17 16 15 13 11 51 40 32 54 38 27 14 12 12 15 13 13 16 13 11 23 23 23 56 61 64 45 50 53 23 22 20 55 46 39 30 27 25 39 29 23
40 31 22 30 24 20 29 30 30 27 26 26 60 45 35 39 28 20 17 14 14 20 17 18 17 16 15 33 29 26 36 34 32 34 32 32 32 28 26 56 47 39 11 9 8 22 14 10 41 31 23 32 26 20 29 30 30 27 27 26 59 44 35 39 28 20 17 14 14 20 17 18 17 16 15 33 29 26 36 33 32 34 32 32 30 27 25 58 48 40 12 10 9 19 13 9
52 38 26 30 23 17 12 12 12 17 16 15 43 36 34 17 14 13 33 26 24 17 15 16 18 18 19 49 47 47 50 46 46 55 51 51 44 39 37 49 40 33 7 5 5 1 1 1 46 34 23 31 23 17 11 11 11 16 15 14 42 36 33 18 14 13 33 26 24 17 15 16 18 18 19 49 47 47 50 46 45 55 51 51 44 39 37 51 41 34 8 6 6 1 1 1
